trafik_levhalari/bilgi/63.svg

<svg viewBox="0 0 300 451.4" xmlns="http://www.w3.org/2000/svg"><defs><style>.cls-1 {        fill: #00408c;      }      .cls-1, .cls-2 {        fill-rule: evenodd;        isolation: isolate;      }      .cls-2, .cls-3 {        fill: #fff;      }</style></defs><g data-name="Layer 2"><g data-name="Layer 1"><path class="cls-1" d="M17.667,0H282.333A17.628,17.628,0,0,1,300,17.667V433.728A17.629,17.629,0,0,1,282.333,451.4H17.667A17.629,17.629,0,0,1,0,433.728V17.667A17.628,17.628,0,0,1,17.667,0Z"/><path class="cls-2" d="M18.768,5.137A13.833,13.833,0,0,0,4.96,18.945V432.23a13.834,13.834,0,0,0,13.808,13.809H281.1A13.832,13.832,0,0,0,294.9,432.23V18.945A13.831,13.831,0,0,0,281.1,5.137Zm0,4.955H281.1a8.78,8.78,0,0,1,8.853,8.853V432.23a8.78,8.78,0,0,1-8.853,8.853H18.768a8.78,8.78,0,0,1-8.853-8.853V18.945a8.78,8.78,0,0,1,8.853-8.853Z"/><path class="cls-2" d="M49.968,50.166H249.3V250.42H49.968Z"/><path class="cls-3" d="m150.43 231.26h73.92c1.645 0 1.834-0.193 1.834-1.853q0-55.86 0.014-111.72a3.429 3.429 0 0 0-1.1-2.6q-17.118-17.076-34.193-34.2a3.581 3.581 0 0 0-2.739-1.111q-37.8 0.025-75.6 0a3.4 3.4 0 0 0-2.6 1.085q-16.975 17.049-34 34.046a3.963 3.963 0 0 0-1.241 3.054q0.032 55.558 0 111.12c0 1.88 0.417 2.2 2.15 2.2q36.775-0.044 73.555-0.021z"/><path d="M150.432,231.257q-36.78,0-73.56.019c-1.733,0-2.152-.318-2.15-2.2q.039-55.56,0-111.119a3.963,3.963,0,0,1,1.241-3.054q17.036-16.99,34-34.046a3.4,3.4,0,0,1,2.6-1.085q37.8.027,75.6,0a3.581,3.581,0,0,1,2.739,1.111q17.073,17.121,34.193,34.2a3.429,3.429,0,0,1,1.1,2.6q-.025,55.859-.014,111.719c0,1.66-.189,1.853-1.834,1.853ZM75.811,169.948h24.45v-1.371c0-4.039-.036-8.079.01-12.117a48.819,48.819,0,0,1,1.595-13.272c.712-2.436,1.5-4.848,2.276-7.322l-28.32-18.444v32.606H98.665a2.623,2.623,0,0,1,.949.028c.28.117.476.431.709.659l-.257.31H75.811ZM114.3,120.739,93.266,99.56,76.328,116.5l28.34,18.431A51.266,51.266,0,0,1,114.3,120.739Zm72.244-.377c1.8,2.316,3.694,4.539,5.335,6.937s3.015,4.955,4.538,7.5l28.318-18.421L207.575,99.342Zm14.143,29.678c.167-.012.645-.077,1.122-.077,7.316-.006,14.632-.025,21.947.018,1.07.006,1.425-.248,1.42-1.381-.045-9.914-.025-19.828-.029-29.742,0-.414-.04-.827-.072-1.454l-28.1,18.308C198.257,140.652,199.483,145.383,200.689,150.04Zm-74.024-39.1L111.233,81.41q-8.615,8.615-16.882,16.882c7.008,7.006,14.089,14.087,20.973,20.971Zm47.567-.037,11.364,8.351L206.54,98.31l-16.9-16.9C184.492,91.269,179.307,101.193,174.232,110.9Zm-16.174-5.279c2.279-8.115,4.595-16.363,6.929-24.676h-29.1c2.357,8.383,4.684,16.658,6.939,24.676Zm-16.336.092a5.494,5.494,0,0,0-.129-.651c-2.18-7.762-4.381-15.519-6.522-23.292-.232-.842-.663-.917-1.367-.915-6.8.016-13.6.008-20.393.013-.327,0-.654.061-1.105.105l15.328,29.479Zm47-24.849h-1.417c-6.677,0-13.354.022-20.03-.024a1.325,1.325,0,0,0-1.549,1.168c-1.5,5.505-3.058,11-4.6,16.491-.7,2.489-1.4,4.976-2.021,7.186l14.258,4.727Q180.869,95.983,188.725,80.867Zm11.864,129.25c.376.035.61.077.845.077,7.559,0,15.118-.009,22.677.021.884,0,1.057-.34,1.054-1.129-.025-5.559-.012-11.118-.016-16.678,0-.39-.04-.78-.063-1.193h-24.5Zm-124.789,0h24.391V191.2H75.8Zm149.3-59.047h-24.51v18.866H225.1Zm-24.485,79.073h24.452v-18.88H200.612Zm24.455-40.09V171.176H200.628v18.872Zm-124.886-.013V171.2H75.847v18.835Zm.016,21.223H75.811v18.895H100.2Z"/><path class="cls-3" d="M75.811,169.948V151.025h24.255l.257-.31c-.233-.228-.429-.542-.709-.659a2.623,2.623,0,0,0-.949-.028H75.822V117.422l28.32,18.444c-.772,2.474-1.564,4.886-2.276,7.322a48.819,48.819,0,0,0-1.595,13.272c-.046,4.038-.01,8.078-.01,12.117v1.371Z"/><path class="cls-3" d="M114.3,120.739a51.266,51.266,0,0,0-9.634,14.189L76.328,116.5,93.266,99.56Z"/><path class="cls-3" d="m186.55 120.36 21.029-21.02 17.162 17.031-28.318 18.421c-1.523-2.54-2.9-5.105-4.538-7.5s-3.538-4.616-5.335-6.932z"/><path class="cls-3" d="m200.69 150.04c-1.206-4.657-2.432-9.388-3.712-14.328l28.1-18.308c0.032 0.627 0.072 1.04 0.072 1.454 0 9.914-0.016 19.828 0.029 29.742 0 1.133-0.35 1.387-1.42 1.381-7.315-0.043-14.631-0.024-21.947-0.018-0.477 0-0.955 0.065-1.122 0.077z"/><path class="cls-3" d="m126.66 110.94-11.341 8.323c-6.884-6.884-13.965-13.965-20.973-20.971q8.244-8.245 16.882-16.882z"/><path class="cls-3" d="m174.23 110.9c5.075-9.71 10.26-19.634 15.411-29.491l16.9 16.9-20.943 20.945z"/><path class="cls-3" d="m158.06 105.62h-15.232c-2.255-8.018-4.582-16.293-6.939-24.676h29.1c-2.334 8.313-4.65 16.561-6.929 24.676z"/><path class="cls-3" d="M141.722,105.716l-14.188,4.739L112.206,80.976c.451-.044.778-.1,1.105-.105,6.8,0,13.6,0,20.393-.013.7,0,1.135.073,1.367.915,2.141,7.773,4.342,15.53,6.522,23.292A5.494,5.494,0,0,1,141.722,105.716Z"/><path class="cls-3" d="M188.725,80.867q-7.848,15.1-15.356,29.548l-14.258-4.727c.621-2.21,1.323-4.7,2.021-7.186,1.539-5.495,3.094-10.986,4.6-16.491a1.325,1.325,0,0,1,1.549-1.168c6.676.046,13.353.024,20.03.024Z"/><path class="cls-3" d="M200.589,210.117v-18.9h24.5c.023.413.063.8.063,1.193,0,5.56-.009,11.119.016,16.678,0,.789-.17,1.133-1.054,1.129-7.559-.03-15.118-.017-22.677-.021C201.2,210.194,200.965,210.152,200.589,210.117Z"/><path class="cls-3" d="M75.8,210.112V191.2h24.391v18.917Z"/><path class="cls-3" d="m225.1 151.06v18.866h-24.51v-18.866z"/><path class="cls-3" d="m200.61 230.14v-18.88h24.452v18.88z"/><path class="cls-3" d="m225.07 190.05h-24.439v-18.872h24.439z"/><path class="cls-3" d="M100.181,190.035H75.847V171.2h24.334Z"/><path class="cls-3" d="m100.2 211.26v18.895h-24.389v-18.895z"/><path class="cls-3" d="M72.707,326.817v6.844h-11v31.185h-6.87V333.661H43.8v-6.844Z"/><path class="cls-3" d="m88.566 316.17h6.846v6.845h-6.846zm6.846 11.432v22.82a8.379 8.379 0 1 0 16.758 0v-22.82h6.82v22.82a15.212 15.212 0 0 1-25.962 10.763 14.642 14.642 0 0 1-4.462-10.763v-22.82zm16.758-11.434h6.82v6.845h-6.82z"/><path class="cls-3" d="m142.74 326.82 15.972 25.834v-25.834h6.846v38.029h-7.355l-16.227-26.24v26.24h-6.845v-38.029z"/><path class="cls-3" d="M212.076,333.636H191.539V342H204.5v6.845H191.539V358h20.537v6.846H184.7V326.817h27.381Z"/><path class="cls-3" d="M230.335,326.817h6.82V358H256.2v6.846H230.335Z"/></g></g></svg>

<svg xmlns="http://www.w3.org/2000/svg" viewBox="0 0 300 451.396">
  <defs>
    <style>
      .cls-1 {
        fill: #00408c;
      }

      .cls-1, .cls-2 {
        fill-rule: evenodd;
        isolation: isolate;
      }

      .cls-2, .cls-3 {
        fill: #fff;
      }
    </style>
  </defs>
  <g id="Layer_2" data-name="Layer 2">
    <g id="Layer_1-2" data-name="Layer 1">
      <g>
        <g id="g895">
          <path id="rect90889" class="cls-1" d="M17.667,0H282.333A17.628,17.628,0,0,1,300,17.667V433.728A17.629,17.629,0,0,1,282.333,451.4H17.667A17.629,17.629,0,0,1,0,433.728V17.667A17.628,17.628,0,0,1,17.667,0Z"/>
          <path id="path90896" class="cls-2" d="M18.768,5.137A13.833,13.833,0,0,0,4.96,18.945V432.23a13.834,13.834,0,0,0,13.808,13.809H281.1A13.832,13.832,0,0,0,294.9,432.23V18.945A13.831,13.831,0,0,0,281.1,5.137Zm0,4.955H281.1a8.78,8.78,0,0,1,8.853,8.853V432.23a8.78,8.78,0,0,1-8.853,8.853H18.768a8.78,8.78,0,0,1-8.853-8.853V18.945a8.78,8.78,0,0,1,8.853-8.853Z"/>
          <path id="rect92004" class="cls-2" d="M49.968,50.166H249.3V250.42H49.968Z"/>
        </g>
        <g>
          <path class="cls-3" d="M150.432,231.257h73.92c1.645,0,1.834-.193,1.834-1.853q0-55.86.014-111.719a3.429,3.429,0,0,0-1.1-2.6q-17.118-17.076-34.193-34.2a3.581,3.581,0,0,0-2.739-1.111q-37.8.025-75.6,0a3.4,3.4,0,0,0-2.6,1.085q-16.975,17.049-34,34.046a3.963,3.963,0,0,0-1.241,3.054q.032,55.558,0,111.119c0,1.88.417,2.2,2.15,2.2Q113.652,231.234,150.432,231.257Z"/>
          <path d="M150.432,231.257q-36.78,0-73.56.019c-1.733,0-2.152-.318-2.15-2.2q.039-55.56,0-111.119a3.963,3.963,0,0,1,1.241-3.054q17.036-16.99,34-34.046a3.4,3.4,0,0,1,2.6-1.085q37.8.027,75.6,0a3.581,3.581,0,0,1,2.739,1.111q17.073,17.121,34.193,34.2a3.429,3.429,0,0,1,1.1,2.6q-.025,55.859-.014,111.719c0,1.66-.189,1.853-1.834,1.853ZM75.811,169.948h24.45v-1.371c0-4.039-.036-8.079.01-12.117a48.819,48.819,0,0,1,1.595-13.272c.712-2.436,1.5-4.848,2.276-7.322l-28.32-18.444v32.606H98.665a2.623,2.623,0,0,1,.949.028c.28.117.476.431.709.659l-.257.31H75.811ZM114.3,120.739,93.266,99.56,76.328,116.5l28.34,18.431A51.266,51.266,0,0,1,114.3,120.739Zm72.244-.377c1.8,2.316,3.694,4.539,5.335,6.937s3.015,4.955,4.538,7.5l28.318-18.421L207.575,99.342Zm14.143,29.678c.167-.012.645-.077,1.122-.077,7.316-.006,14.632-.025,21.947.018,1.07.006,1.425-.248,1.42-1.381-.045-9.914-.025-19.828-.029-29.742,0-.414-.04-.827-.072-1.454l-28.1,18.308C198.257,140.652,199.483,145.383,200.689,150.04Zm-74.024-39.1L111.233,81.41q-8.615,8.615-16.882,16.882c7.008,7.006,14.089,14.087,20.973,20.971Zm47.567-.037,11.364,8.351L206.54,98.31l-16.9-16.9C184.492,91.269,179.307,101.193,174.232,110.9Zm-16.174-5.279c2.279-8.115,4.595-16.363,6.929-24.676h-29.1c2.357,8.383,4.684,16.658,6.939,24.676Zm-16.336.092a5.494,5.494,0,0,0-.129-.651c-2.18-7.762-4.381-15.519-6.522-23.292-.232-.842-.663-.917-1.367-.915-6.8.016-13.6.008-20.393.013-.327,0-.654.061-1.105.105l15.328,29.479Zm47-24.849h-1.417c-6.677,0-13.354.022-20.03-.024a1.325,1.325,0,0,0-1.549,1.168c-1.5,5.505-3.058,11-4.6,16.491-.7,2.489-1.4,4.976-2.021,7.186l14.258,4.727Q180.869,95.983,188.725,80.867Zm11.864,129.25c.376.035.61.077.845.077,7.559,0,15.118-.009,22.677.021.884,0,1.057-.34,1.054-1.129-.025-5.559-.012-11.118-.016-16.678,0-.39-.04-.78-.063-1.193h-24.5Zm-124.789,0h24.391V191.2H75.8Zm149.3-59.047h-24.51v18.866H225.1Zm-24.485,79.073h24.452v-18.88H200.612Zm24.455-40.09V171.176H200.628v18.872Zm-124.886-.013V171.2H75.847v18.835Zm.016,21.223H75.811v18.895H100.2Z"/>
          <path class="cls-3" d="M75.811,169.948V151.025h24.255l.257-.31c-.233-.228-.429-.542-.709-.659a2.623,2.623,0,0,0-.949-.028H75.822V117.422l28.32,18.444c-.772,2.474-1.564,4.886-2.276,7.322a48.819,48.819,0,0,0-1.595,13.272c-.046,4.038-.01,8.078-.01,12.117v1.371Z"/>
          <path class="cls-3" d="M114.3,120.739a51.266,51.266,0,0,0-9.634,14.189L76.328,116.5,93.266,99.56Z"/>
          <path class="cls-3" d="M186.546,120.362l21.029-21.02,17.162,17.031-28.318,18.421c-1.523-2.54-2.9-5.105-4.538-7.5S188.343,122.678,186.546,120.362Z"/>
          <path class="cls-3" d="M200.689,150.04c-1.206-4.657-2.432-9.388-3.712-14.328l28.1-18.308c.032.627.072,1.04.072,1.454,0,9.914-.016,19.828.029,29.742,0,1.133-.35,1.387-1.42,1.381-7.315-.043-14.631-.024-21.947-.018C201.334,149.963,200.856,150.028,200.689,150.04Z"/>
          <path class="cls-3" d="M126.665,110.94l-11.341,8.323c-6.884-6.884-13.965-13.965-20.973-20.971q8.244-8.245,16.882-16.882Z"/>
          <path class="cls-3" d="M174.232,110.9c5.075-9.71,10.26-19.634,15.411-29.491l16.9,16.9L185.6,119.254Z"/>
          <path class="cls-3" d="M158.058,105.624H142.826c-2.255-8.018-4.582-16.293-6.939-24.676h29.1C162.653,89.261,160.337,97.509,158.058,105.624Z"/>
          <path class="cls-3" d="M141.722,105.716l-14.188,4.739L112.206,80.976c.451-.044.778-.1,1.105-.105,6.8,0,13.6,0,20.393-.013.7,0,1.135.073,1.367.915,2.141,7.773,4.342,15.53,6.522,23.292A5.494,5.494,0,0,1,141.722,105.716Z"/>
          <path class="cls-3" d="M188.725,80.867q-7.848,15.1-15.356,29.548l-14.258-4.727c.621-2.21,1.323-4.7,2.021-7.186,1.539-5.495,3.094-10.986,4.6-16.491a1.325,1.325,0,0,1,1.549-1.168c6.676.046,13.353.024,20.03.024Z"/>
          <path class="cls-3" d="M200.589,210.117v-18.9h24.5c.023.413.063.8.063,1.193,0,5.56-.009,11.119.016,16.678,0,.789-.17,1.133-1.054,1.129-7.559-.03-15.118-.017-22.677-.021C201.2,210.194,200.965,210.152,200.589,210.117Z"/>
          <path class="cls-3" d="M75.8,210.112V191.2h24.391v18.917Z"/>
          <path class="cls-3" d="M225.1,151.065v18.866h-24.51V151.065Z"/>
          <path class="cls-3" d="M200.612,230.138v-18.88h24.452v18.88Z"/>
          <path class="cls-3" d="M225.067,190.048H200.628V171.176h24.439Z"/>
          <path class="cls-3" d="M100.181,190.035H75.847V171.2h24.334Z"/>
          <path class="cls-3" d="M100.2,211.258v18.895H75.811V211.258Z"/>
        </g>
        <g>
          <path class="cls-3" d="M72.707,326.817v6.844h-11v31.185h-6.87V333.661H43.8v-6.844Z"/>
          <path class="cls-3" d="M88.566,316.168h6.846v6.845H88.566ZM95.412,327.6V350.42a8.379,8.379,0,1,0,16.758,0V327.6h6.82V350.42a15.212,15.212,0,0,1-25.962,10.763,14.642,14.642,0,0,1-4.462-10.763V327.6Zm16.758-11.434h6.82v6.845h-6.82Z"/>
          <path class="cls-3" d="M142.737,326.817l15.972,25.834V326.817h6.846v38.029H158.2l-16.227-26.24v26.24h-6.845V326.817Z"/>
          <path class="cls-3" d="M212.076,333.636H191.539V342H204.5v6.845H191.539V358h20.537v6.846H184.7V326.817h27.381Z"/>
          <path class="cls-3" d="M230.335,326.817h6.82V358H256.2v6.846H230.335Z"/>
        </g>
      </g>
    </g>
  </g>
</svg>
